X: 43112
T: Windy Harbour, The
R: reel
M: 4/4
K: Bminor
|:~f2dB ~e2cA|~f2dA ^ga^ga|~f2d2 ~e2cA|e~A3 c~B3:|
|:fa^ga bafa|aece aece|fa^ga bafa|1 afed ~B3g:|2 afed ~B3G||
|:F~B3 d~B3|f~B3 eBdB|e~A3 c~A3|e~A3 c2BA|
F~B3 AB~c2|Bccd ef^gf|~a2fa bafa|1 afec ~B3G:|2 afec B4||

